X:783
T:Volpony
C:John Walsh, 1712
S:Colin Hume's website,  colinhume.com  - chords can also be printed below the stave.
M:3/4
K:G
Q:1/4=110
M:3/4
L:1/8
%%MIDI beat 100 95 80
%%MIDI gchord bcb
K:G
P:A
|: "G"G2 B2 "Am"c3/B//c// | "G"d2 B2 "C"e2 | "G"dg bg "Am"ea | "D"f3 e d2 |\
"Em"G2 "Em/D"B2 "C"c3/B//c// | "G"d2 B2 "C"e2 | "G"dg ba "Em"gf | "A7"e4 "D"d2 :|
P:B
|: "D"d2 f2 "Em"g3/f//g// | "D"a2 f2 a3/g//a// | "G"bg "C"eg "D"fe | "B7"^d3d ef |\
"Em"g2B2 "C"c3/B//c// | "G"d2B2 "C"e2 | "G"dB GB "Am"cB | "D7"A4 "G"G2 :|

